X:1
T:Title
%%score { ( 1 3 ) | ( 2 4 ) }
L:1/8
M:3/4
K:G
V:1 treble nm="Grand Piano"
V:3 treble 
V:2 treble 
V:4 treble 
V:1
 z2 z2[Q:1/4=100] D2 | DB B2 B2 | BA A2 D2 | D[FA] [FA]2 [DAc]2 |[M:2/4] [EGc]2 [DGB]2 | %5
[M:1/4] [DGB]2 |[M:3/4] z2 z2 d2 | [=Fd][Ec] [Ec]2 [CEA]2 | [B,DG][B,DG] [DGB]3 [CFA] | %9
[M:2/4] [CFA]2 [B,G]2 |[M:1/4] [Gd]2 |[M:3/4] [Fd][FA] [FA]2 [GB]c | ed d2 Bd | %13
 [Fd]3 [FA] [GB][Ac] |[M:2/4] c2 B2 |[M:1/4] B2 |[M:3/4] z2 z2 d2 | [=Fd][Ec] [Ec]2 [CEA]2 | %18
 [B,DG][B,DG] [DGB]3 [CFA] |[M:2/4] [CFA]2 [B,G]2 |] %20
V:2
 z2 z2 [G,B,]2 | [G,B,][G,DG] [G,DG]2 [G,D]2 | [D,G,D][D,F,D] [D,F,D]2 [D,F,]2 | %3
 [F,A,][D,D] [D,D]2 F,2 |[M:2/4] G,2 G,2 |[M:1/4] G,2 |[M:3/4] D,D, D,C, [B,,G,]2 | %7
 [C,G,][C,G,] [C,G,]2 C,2 | D,D, D,3 D, |[M:2/4] D,2 G,,2 |[M:1/4] [G,B,]2 | %11
[M:3/4] [D,A,][D,D] [D,D]2 z[K:treble] A | z2 z2 .D2 | [D,A,]3 [D,D] [D,D][F,D] | %14
[M:2/4][K:treble] [G,EG]2 [G,DG]2 |[M:1/4] [G,DG]2 |[M:3/4] [G,DG][K:bass][D,C] [E,B,]2 [B,,G,]2 | %17
 [C,G,][C,G,] [C,G,]2 C,2 | D,D, D,3 D, |[M:2/4] D,2 G,,2 |] %20
V:3
 x6 | x6 | x6 | x6 |[M:2/4] x4 |[M:1/4] x2 |[M:3/4] [DGB][DFA] [DFA]2 G=F | x6 | x6 |[M:2/4] x4 | %10
[M:1/4] x2 |[M:3/4] x6 | x6 | x6 |[M:2/4] x4 |[M:1/4] x2 |[M:3/4] B[FA] G2 G=F | x6 | x6 | %19
[M:2/4] x4 |] %20
V:4
 x6 | x6 | x6 | x6 |[M:2/4] x4 |[M:1/4] x2 |[M:3/4] x6 | x6 | x6 |[M:2/4] x4 |[M:1/4] x2 | %11
[M:3/4] z2 z2 [D,D]2[K:treble] | [G,CG][G,B,G] [G,B,G]2 [G,G]-[G,B,G] | x6 |[M:2/4][K:treble] x4 | %15
[M:1/4] x2 |[M:3/4] x[K:bass] x5 | x6 | x6 |[M:2/4] x4 |] %20

